archdroid-icon-theme/Archdroid-DeepPurple/places/scalable/folder-system.svg

<svg fill="#673AB7" height="48" viewBox="0 0 48 48" width="48" xmlns="http://www.w3.org/2000/svg"><path d="m8 8c-2.21 0-3.980469 1.79-3.980469 4l-.019531 24c0 2.21 1.79 4 4 4h32c2.21 0 4-1.79 4-4v-20c0-2.21-1.79-4-4-4h-16l-4-4zm19.132812 9h4c.25 0 .455.184922.5.419922l.375 2.65039c.61.255 1.174454.589376 1.689454.984376l2.490234-1.003907c.225-.09.484375-.000156.609375.214844l2 3.464844c.125.22.070859.488672-.119141.638672l-2.115234 1.65625c.04.32.070312.644609.070312.974609s-.030312.654609-.070312.974609l2.109375 1.65625c.19.155.246094.423672.121094.638672l-2 3.464844c-.125.215-.384375.299844-.609375.214844l-2.490235-1.003907c-.515.4-1.081406.729375-1.691406.984376l-.375 2.65039c-.04.235-.244141.419922-.494141.419922h-4c-.249999 0-.456093-.184922-.496093-.419922l-.375-2.65039c-.61-.255-1.174453-.589375-1.689453-.984376l-2.490235 1.003907c-.225.09-.484375.000156-.609375-.214844l-2-3.464844c-.125-.22-.070859-.488672.119141-.638672l2.111328-1.65625c-.04-.32-.070313-.644609-.070313-.974609.000001-.33.030313-.654609.070313-.974609l-2.111328-1.65625c-.19-.155-.244141-.423672-.119141-.638672l2-3.464844c.125-.215.384375-.299844.609375-.214844l2.490235 1.003907c.515-.4 1.079453-.729376 1.689453-.984376l.375-2.65039c.04-.235.246093-.419922.496093-.419922zm2 6.5c-1.934999 0-3.5 1.565-3.5 3.5.000001 1.935 1.565001 3.5 3.5 3.5 1.935 0 3.5-1.565 3.5-3.5s-1.565-3.5-3.5-3.5z" fill="#673AB7"/><path d="m79.186441 15.966102h-6v11c0 2.76-2.24 5-5 5s-5-2.24-5-5 2.24-5 5-5c1.13 0 2.16.39 3 1.02v-11.02h8z" fill="#fff"/></svg>

<svg fill="#673AB7" height="48" version="1.1" viewBox="0 0 48 48" width="48" xmlns="http://www.w3.org/2000/svg"><path d="M8 8C5.79 8 4.019531 9.79 4.019531 12L4 36C4 38.21 5.79 40 8 40L40 40C42.21 40 44 38.21 44 36L44 16C44 13.79 42.21 12 40 12L24 12 20 8 8 8zM27.132812 17L31.132812 17C31.382812 17 31.587812 17.184922 31.632812 17.419922L32.007812 20.070312C32.617812 20.325312 33.182266 20.659688 33.697266 21.054688L36.1875 20.050781C36.4125 19.960781 36.671875 20.050625 36.796875 20.265625L38.796875 23.730469C38.921875 23.950469 38.867734 24.219141 38.677734 24.369141L36.5625 26.025391C36.6025 26.345391 36.632812 26.67 36.632812 27 36.632812 27.33 36.6025 27.654609 36.5625 27.974609L38.671875 29.630859C38.861875 29.785859 38.917969 30.054531 38.792969 30.269531L36.792969 33.734375C36.667969 33.949375 36.408594 34.034219 36.183594 33.949219L33.693359 32.945312C33.178359 33.345312 32.611953 33.674687 32.001953 33.929688L31.626953 36.580078C31.586953 36.815078 31.382812 37 31.132812 37L27.132812 37C26.882813 37 26.676719 36.815078 26.636719 36.580078L26.261719 33.929688C25.651719 33.674688 25.087266 33.340313 24.572266 32.945312L22.082031 33.949219C21.857031 34.039219 21.597656 33.949375 21.472656 33.734375L19.472656 30.269531C19.347656 30.049531 19.401797 29.780859 19.591797 29.630859L21.703125 27.974609C21.663125 27.654609 21.632812 27.33 21.632812 27 21.632813 26.67 21.663125 26.345391 21.703125 26.025391L19.591797 24.369141C19.401797 24.214141 19.347656 23.945469 19.472656 23.730469L21.472656 20.265625C21.597656 20.050625 21.857031 19.965781 22.082031 20.050781L24.572266 21.054688C25.087266 20.654688 25.651719 20.325312 26.261719 20.070312L26.636719 17.419922C26.676719 17.184922 26.882812 17 27.132812 17zM29.132812 23.5C27.197813 23.5 25.632812 25.065 25.632812 27 25.632813 28.935 27.197813 30.5 29.132812 30.5 31.067812 30.5 32.632812 28.935 32.632812 27 32.632812 25.065 31.067812 23.5 29.132812 23.5z"/><path d="m79.186441 15.966102l-6 0 0 11c0 2.76-2.24 5-5 5-2.76 0-5-2.24-5-5 0-2.76 2.24-5 5-5 1.13 0 2.16.39 3 1.02l0-11.02 8 0 0 4z" fill="#fff"/></svg>
